X:41
T:Scartaglen
Z: id:dc-polka-34
M:2/4
L:1/8
K:D Major
AF A2|BG B2|c/B/A/B/ cd|ed B/c/d/B/|!
AF A2|BG B2|c/B/A/B/ cd|ed d2:|!
Ad f>g|fe e2|ef ga|ba ag|!
f>e fg|fe e2|ef g/e/c|ed d2:|!

